!!!!SEGMENT: pl-wtm--r-1740--002_stefani-jozef--la-noce-ou-les-amours-du-village-andantino.krn
!!!cenid: 18xx:1901
!!!COM: Stefani, Józef
!!!COM-rismid: pe30024097
!!!CDT: 1800/04/16-1876/03/19
!!!CNT: Polish
!!!OPR: La Noce ou Les amours du Village
!!!OTL: Andantino
!!!OMV: 002
!!!PDT:
!!!AGN: Secular
!!!SMS-siglum: PL-Wtm
!!!SMS-shelfmark: R 1740
!!!SMS-shelfwork: 001-002 M
!!!SMS-variant:
!!!SMS-altvar:
!!!NIFC-rismid: 1001137574
!!!URL-scan: http://repozytorium.nifc.pl/skany/pl-wtm-nut--r1740
!!!ONB-nifc: UWAGA: skan 0009-0010
!!!OMD: Andantino.
**kern	**kern	**dynam	**kern	**dynam	**kern	**dynam	**kern	**dynam	**kern	**dynam	**kern	**kern	**kern	**dynam	**kern	**dynam	**kern	**dynam	**kern	**dynam	**kern	**dynam	**kern	**dynam	**kern	**dynam
*	*group4	*	*group4	*	*	*	*group3	*	*group3	*	*	*	*	*	*group2	*	*group2	*	*	*	*	*	*group1	*	*group1	*
*	*	*	*	*	*	*	*I""Violini	*	*I""Violini	*	*	*	*	*	*	*	*	*	*	*	*	*	*	*	*	*
*	*	*	*	*	*	*	*I''vl	*	*I''vl	*	*	*	*	*	*	*	*	*	*	*	*	*	*	*	*	*
*part15	*part14	*part14	*part13	*part13	*part12	*part12	*part11	*part11	*part10	*part10	*part9	*part8	*part7	*part7	*part6	*part6	*part5	*part5	*part4	*part4	*part3	*part3	*part2	*part2	*part1	*part1
*staff15	*staff14	*	*staff13	*	*staff12	*	*staff11	*	*staff10	*	*staff9	*staff8	*staff7	*	*staff6	*	*staff5	*	*staff4	*	*staff3	*	*staff2	*	*staff1	*
*I"Tympani	*I"C: Basſi	*	*I"Violoncelli	*	*I"Viole	*	*	*	*	*	*I"Trombone	*I"in C Tromby	*I"Fagotti	*	*I"in C. Corni	*	*I"in G. Corni	*	*I"in C Clarinetti	*	*I"Oboe	*	*I"Picolo	*	*I"Flauto	*
*I'timp	*I'cb	*	*I'vlc	*	*I'vla	*	*	*	*	*	*I'trb	*I'tr in C	*I'fg	*	*I'cor in C	*	*I'cor in G	*	*I'cl in C	*	*I'ob	*	*I'fl picc	*	*I'fl	*
*stria1	*	*	*	*	*	*	*	*	*	*	*	*	*	*	*	*	*	*	*	*	*	*	*	*	*	*
*clefF4	*clefF4	*	*clefF4	*	*clefC3	*	*clefG2	*	*clefG2	*	*clefF4	*clefG2	*clefF4	*	*clefG2	*	*clefG2	*	*clefG2	*	*clefG2	*	*clefG2	*	*clefG2	*
*	*	*	*	*	*	*	*	*	*	*	*	*	*	*	*	*	*ITrd3c5	*	*	*	*	*	*ITrd0c0	*	*	*
*k[]	*k[b-e-a-]	*	*k[b-e-a-]	*	*k[b-e-a-]	*	*k[b-e-a-]	*	*k[b-e-a-]	*	*k[b-e-a-]	*k[]	*k[b-e-a-]	*	*k[]	*	*k[]	*	*k[b-e-a-]	*	*k[b-e-a-]	*	*k[b-e-a-]	*	*k[b-e-a-]	*
*E-:	*E-:	*	*E-:	*	*E-:	*	*E-:	*	*E-:	*	*E-:	*E-:	*E-:	*	*E-:	*	*E-:	*	*E-:	*	*E-:	*	*E-:	*	*E-:	*
*M2/4	*M2/4	*	*M2/4	*	*M2/4	*	*M2/4	*	*M2/4	*	*M2/4	*M2/4	*M2/4	*	*M2/4	*	*M2/4	*	*M2/4	*	*M2/4	*	*M2/4	*	*M2/4	*
=1	=1	=1	=1	=1	=1	=1	=1	=1	=1	=1	=1	=1	=1	=1	=1	=1	=1	=1	=1	=1	=1	=1	=1	=1	=1	=1
*	*all\right	*	*all\right	*	*all\right	*	*all\right	*	*all\right	*	*all\right	*all\right	*all\right	*	*all\right	*	*all\right	*	*all\right	*	*all\right	*	*all\right	*	*all\right	*
!	!	!	!	!LO:DY:rj	!	!LO:DY:rj	!	!	!	!LO:DY:rj	!	!	!	!	!	!	!	!	!	!	!	!	!	!	!	!
2ryy	2r	.	4e-\	p	4e-\	p	(4g/	.	4b-\	p	2r	2r	2r	.	2r	.	2r	.	2r	.	2r	.	2r	.	2r	.
.	.	.	.	.	.	.	.	.	(8qqdd/	.	.	.	.	.	.	.	.	.	.	.	.	.	.	.	.	.
.	.	.	4d\	.	4d\	.	4a-/)	.	4cc\)	.	.	.	.	.	.	.	.	.	.	.	.	.	.	.	.	.
=2	=2	=2	=2	=2	=2	=2	=2	=2	=2	=2	=2	=2	=2	=2	=2	=2	=2	=2	=2	=2	=2	=2	=2	=2	=2	=2
*	*	*	*2\right	*	*2\right	*	*	*	*	*	*	*	*	*	*	*	*	*	*	*	*	*	*	*	*	*
2ryy	2r	.	2e-\	.	2e-\	.	2g/	.	(4b-\	.	2ryy	2ryy	2ryy	.	2r	.	2ryy	.	2ryy	.	2ryy	.	2ryy	.	2ryy	.
.	.	.	.	.	.	.	.	.	4ee-\)	.	.	.	.	.	.	.	.	.	.	.	.	.	.	.	.	.
=3	=3	=3	=3	=3	=3	=3	=3	=3	=3	=3	=3	=3	=3	=3	=3	=3	=3	=3	=3	=3	=3	=3	=3	=3	=3	=3
2ryy	2r	.	[2B-\	.	[2B-/	.	(4f/	.	(4dd\	.	2ryy	2ryy	2ryy	.	2r	.	2ryy	.	2ryy	.	2ryy	.	2ryy	.	2ryy	.
.	.	.	.	.	.	.	4g/)	.	4ee-\)	.	.	.	.	.	.	.	.	.	.	.	.	.	.	.	.	.
=4	=4	=4	=4	=4	=4	=4	=4	=4	=4	=4	=4	=4	=4	=4	=4	=4	=4	=4	=4	=4	=4	=4	=4	=4	=4	=4
2ryy	2r	.	4B-\]	.	(4B-/]	.	2a-/	.	(4ff\	.	2ryy	2ryy	2ryy	.	2r	.	2ryy	.	2ryy	.	2ryy	.	2ryy	.	2ryy	.
.	.	.	4d\	.	4d\)	.	.	.	4b-\)	.	.	.	.	.	.	.	.	.	.	.	.	.	.	.	.	.
=5	=5	=5	=5	=5	=5	=5	=5	=5	=5	=5	=5	=5	=5	=5	=5	=5	=5	=5	=5	=5	=5	=5	=5	=5	=5	=5
*	*2\right	*	*	*	*	*	*	*	*	*	*	*	*	*	*	*	*	*	*	*	*	*	*	*	*	*
!	!	!LO:DY:rj	!	!	!	!	!	!	!	!	!	!	!	!	!	!	!	!	!	!	!	!	!	!	!	!
2ryy	[2E-\	p	[2E-\	.	2e-\	.	2g/	.	(4ee-\	.	2ryy	2ryy	2ryy	.	2r	.	2ryy	.	2ryy	.	2ryy	.	2ryy	.	2ryy	.
.	.	.	.	.	.	.	.	.	4b-\)	.	.	.	.	.	.	.	.	.	.	.	.	.	.	.	.	.
=6	=6	=6	=6	=6	=6	=6	=6	=6	=6	=6	=6	=6	=6	=6	=6	=6	=6	=6	=6	=6	=6	=6	=6	=6	=6	=6
2ryy	4E-\]	.	4E-\]	.	(4B-/	.	2e-/	.	(4g/	.	2ryy	2ryy	2ryy	.	2r	.	2ryy	.	2ryy	.	2ryy	.	2ryy	.	2ryy	.
.	4G\	.	4G\	.	4G/)	.	.	.	4e-/)	.	.	.	.	.	.	.	.	.	.	.	.	.	.	.	.	.
=7	=7	=7	=7	=7	=7	=7	=7	=7	=7	=7	=7	=7	=7	=7	=7	=7	=7	=7	=7	=7	=7	=7	=7	=7	=7	=7
*	*	*	*	*	*	*	*	*	*	*	*	*	*	*	*2\right	*	*	*	*	*	*	*	*	*	*	*
2ryy	2BB-/	.	2BB-/	.	(4F/	.	2d/	.	(4a-/	.	2ryy	2ryy	2ryy	.	2ff 2b-X\	.	2ryy	.	2ryy	.	2ryy	.	2ryy	.	2ryy	.
.	.	.	.	.	4A-/)	.	.	.	4f/)	.	.	.	.	.	.	.	.	.	.	.	.	.	.	.	.	.
=8	=8	=8	=8	=8	=8	=8	=8	=8	=8	=8	=8	=8	=8	=8	=8	=8	=8	=8	=8	=8	=8	=8	=8	=8	=8	=8
!	!	!	!LO:TX:t=P:problem:powtórzenie partii kontrabasu	!	!	!	!	!	!	!	!	!	!	!	!	!	!	!	!	!	!	!	!	!	!	!
2ryy	8E-\	.	8E-\yy	.	(8G/L	.	4e-'/	.	(16e-/LL	.	2ryy	2ryy	2ryy	.	4ee-X 4g/	.	2ryy	.	2ryy	.	2ryy	.	2ryy	.	2ryy	.
.	.	.	.	.	.	.	.	.	16f/	.	.	.	.	.	.	.	.	.	.	.	.	.	.	.	.	.
.	8r	.	8ryy	.	8B-/	.	.	.	16g/	.	.	.	.	.	.	.	.	.	.	.	.	.	.	.	.	.
.	.	.	.	.	.	.	.	.	16f/JJ	.	.	.	.	.	.	.	.	.	.	.	.	.	.	.	.	.
.	4r	.	4ryy	.	8G/J)	.	4r	.	8e-'/L)	.	.	.	.	.	4r	.	.	.	.	.	.	.	.	.	.	.
.	.	.	.	.	8r	.	.	.	8b-'/J	.	.	.	.	.	.	.	.	.	.	.	.	.	.	.	.	.
=9	=9	=9	=9	=9	=9	=9	=9	=9	=9	=9	=9	=9	=9	=9	=9	=9	=9	=9	=9	=9	=9	=9	=9	=9	=9	=9
2ryy	8E-\	.	8E-\yy	.	8B-/	.	8e-/	.	8g/L	.	2ryy	2ryy	2ryy	.	2r	.	2ryy	.	2ryy	.	2ryy	.	2ryy	.	2ryy	.
.	8r	.	8ryy	.	8r	.	8r	.	8ee-/J	.	.	.	.	.	.	.	.	.	.	.	.	.	.	.	.	.
.	4r	.	4ryy	.	4r	.	4r	.	[>4b-/	sf	.	.	.	.	.	.	.	.	.	.	.	.	.	.	.	.
=10	=10	=10	=10	=10	=10	=10	=10	=10	=10	=10	=10	=10	=10	=10	=10	=10	=10	=10	=10	=10	=10	=10	=10	=10	=10	=10
2ryy	8BB-/	.	8BB-/yy	.	[2B-/	.	8r	.	(8b-/L]	.	2ryy	2ryy	2ryy	.	2r	.	2ryy	.	2ryy	.	2ryy	.	2ryy	.	2ryy	.
.	8r	.	8ryy	.	.	.	4d/	.	8a-/)	.	.	.	.	.	.	.	.	.	.	.	.	.	.	.	.	.
.	4r	.	4ryy	.	.	.	.	.	8f'/	.	.	.	.	.	.	.	.	.	.	.	.	.	.	.	.	.
.	.	.	.	.	.	.	8en/	.	8g'/J	.	.	.	.	.	.	.	.	.	.	.	.	.	.	.	.	.
=11	=11	=11	=11	=11	=11	=11	=11	=11	=11	=11	=11	=11	=11	=11	=11	=11	=11	=11	=11	=11	=11	=11	=11	=11	=11	=11
2ryy	8BB-/	.	8BB-/yy	.	4.B-/]	.	4f/	.	8b-/L	.	2ryy	2ryy	2ryy	.	2r	.	2ryy	.	2ryy	.	2ryy	.	2ryy	.	2ryy	.
.	4r	.	4ryy	.	.	.	.	.	8a-/J	.	.	.	.	.	.	.	.	.	.	.	.	.	.	.	.	.
.	.	.	.	.	.	.	4d/	.	4f/	sfz	.	.	.	.	.	.	.	.	.	.	.	.	.	.	.	.
.	8r	.	8ryy	.	8A-/	.	.	.	.	.	.	.	.	.	.	.	.	.	.	.	.	.	.	.	.	.
!!LO:PB:g=original
=12	=12	=12	=12	=12	=12	=12	=12	=12	=12	=12	=12	=12	=12	=12	=12	=12	=12	=12	=12	=12	=12	=12	=12	=12	=12	=12
*	*	*	*	*	*	*	*	*	*	*	*	*	*^	*	*	*	*	*	*	*	*	*	*	*	*	*
2ryy	8E-\	.	8E-\yy	.	(8G/L	.	8e-/	.	(16e-/LL	.	2r	2r	(16E-/LL	2r	.	2r	.	2r	.	2r	.	2r	.	2r	.	2r	.
.	.	.	.	.	.	.	.	.	16f/	.	.	.	16F/	.	.	.	.	.	.	.	.	.	.	.	.	.	.
.	8r	.	8ryy	.	8B-/	.	8r	.	16g/	.	.	.	16G/	.	.	.	.	.	.	.	.	.	.	.	.	.	.
.	.	.	.	.	.	.	.	.	16f/JJ)	.	.	.	16F/JJ)	.	.	.	.	.	.	.	.	.	.	.	.	.	.
.	4r	.	4ryy	.	8G/J)	.	4r	.	8e-'/L	.	.	.	8E-'/L	.	.	.	.	.	.	.	.	.	.	.	.	.	.
.	.	.	.	.	8r	.	.	.	8b-'/J	.	.	.	8B-'/J	.	.	.	.	.	.	.	.	.	.	.	.	.	.
=13	=13	=13	=13	=13	=13	=13	=13	=13	=13	=13	=13	=13	=13	=13	=13	=13	=13	=13	=13	=13	=13	=13	=13	=13	=13	=13	=13
2ryy	8E-\	.	8E-\yy	.	8B-/	.	8e-/	.	8g/L	.	2r	2r	8G/L	2rGG	.	2r	.	2r	.	2r	.	2r	.	2r	.	2r	.
.	8r	.	8ryy	.	8r	.	8r	.	8ee-/J	.	.	.	8e-/J	.	.	.	.	.	.	.	.	.	.	.	.	.	.
.	4r	.	4ryy	.	4r	.	4r	.	[>4b-/	fp	.	.	[4B-/	.	.	.	.	.	.	.	.	.	.	.	.	.	.
.	.	.	.	.	.	.	.	.	.	.	.	.	.	.	sf	.	.	.	.	.	.	.	.	.	.	.	.
=14	=14	=14	=14	=14	=14	=14	=14	=14	=14	=14	=14	=14	=14	=14	=14	=14	=14	=14	=14	=14	=14	=14	=14	=14	=14	=14	=14
2ryy	8BB-/	.	8BB-/yy	.	[2B-/	.	8r	.	(8b-/L]	.	2r	2r	8B-/L]	2rGG	.	2r	.	2r	.	2r	.	2r	.	2r	.	2r	.
.	8r	.	8ryy	.	.	.	4d/	.	8a-/)	.	.	.	8A-/	.	.	.	.	.	.	.	.	.	.	.	.	.	.
.	4r	.	4ryy	.	.	.	.	.	8f'/	.	.	.	8F/	.	.	.	.	.	.	.	.	.	.	.	.	.	.
.	.	.	.	.	.	.	8en/	.	8g'/J	.	.	.	8G/J	.	.	.	.	.	.	.	.	.	.	.	.	.	.
=15	=15	=15	=15	=15	=15	=15	=15	=15	=15	=15	=15	=15	=15	=15	=15	=15	=15	=15	=15	=15	=15	=15	=15	=15	=15	=15	=15
2ryy	8BB-/	.	8BB-/yy	.	4.B-'/]	.	(4f/	.	8.b-/L	.	2r	2r	8.B-/L	2rGG	.	2r	.	2r	.	2r	.	2r	.	2r	.	2r	.
.	8r	.	8ryy	.	.	.	.	.	.	.	.	.	.	.	.	.	.	.	.	.	.	.	.	.	.	.	.
.	.	.	.	.	.	.	.	.	16a-/Jk	.	.	.	16A-/Jk	.	.	.	.	.	.	.	.	.	.	.	.	.	.
.	4r	.	4ryy	.	.	.	4d/)	.	4f/	.	.	.	4F/	.	.	.	.	.	.	.	.	.	.	.	.	.	.
.	.	.	.	.	8A-/	.	.	.	.	.	.	.	.	.	.	.	.	.	.	.	.	.	.	.	.	.	.
*	*	*	*	*	*	*	*	*	*	*	*	*	*v	*v	*	*	*	*	*	*	*	*	*	*	*	*	*
=16	=16	=16	=16	=16	=16	=16	=16	=16	=16	=16	=16	=16	=16	=16	=16	=16	=16	=16	=16	=16	=16	=16	=16	=16	=16	=16
!	!	!	!	!	!	!	!	!	!	!	!	!	!	!	!	!LO:DY:rj	!	!LO:DY:rj	!LO:TX:t=P:problem:diminuendolike accent	!	!	!	!	!	!	!
2ryy	8BBn^/	.	8BBn^/yy	.	8G^/	.	8d/	.	(16g/LL	fp	2r	2r	2r	.	[2ff [2dd\	fp	[2g [2G/	fp	(16g^>/LL	.	2r	.	2r	.	2r	.
.	.	.	.	.	.	.	.	.	16an/	.	.	.	.	.	.	.	.	.	16an/	.	.	.	.	.	.	.
.	8r	.	8ryy	.	8r	.	8r	.	16bn/	.	.	.	.	.	.	.	.	.	16bn/	.	.	.	.	.	.	.
.	.	.	.	.	.	.	.	.	16a/JJ)	.	.	.	.	.	.	.	.	.	16a/JJ	.	.	.	.	.	.	.
.	4r	.	4ryy	.	4r	.	4r	.	8g'/L	.	.	.	.	.	.	.	.	.	8g/L)	.	.	.	.	.	.	.
.	.	.	.	.	.	.	.	.	8dd'/J	.	.	.	.	.	.	.	.	.	8dd'/J	.	.	.	.	.	.	.
=17	=17	=17	=17	=17	=17	=17	=17	=17	=17	=17	=17	=17	=17	=17	=17	=17	=17	=17	=17	=17	=17	=17	=17	=17	=17	=17
2ryy	8GG/	.	8GG/yy	.	2G/	.	8r	.	8bn\L	.	2r	2r	2r	.	2ff] 2dd\]	.	2g] 2G/]	.	8bn'\L	.	2r	.	2r	.	2r	.
.	8r	.	8ryy	.	.	.	8d/	.	8ff\J	.	.	.	.	.	.	.	.	.	8ff'\J	.	.	.	.	.	.	.
.	4r	.	4ryy	.	.	.	4f/	.	4dd\	sfz	.	.	.	.	.	.	.	.	4dd\	sfz	.	.	.	.	.	.
=18	=18	=18	=18	=18	=18	=18	=18	=18	=18	=18	=18	=18	=18	=18	=18	=18	=18	=18	=18	=18	=18	=18	=18	=18	=18	=18
*	*	*	*	*	*	*	*	*	*	*	*	*	*	*	*^	*	*	*	*	*	*	*	*	*	*	*
2ryy	4C/	.	4C/yy	.	8r	.	8r	.	(16cc\LL	.	2r	2r	2r	.	[2ee-X/	[2cc\	.	[2g [2G/	.	2r	.	(16cc\LL	.	2r	.	2r	.
.	.	.	.	.	.	.	.	.	16dd\	.	.	.	.	.	.	.	.	.	.	.	.	16dd\	.	.	.	.	.
.	.	.	.	.	8c\L	.	8e-L 8G/	.	16ee-\	.	.	.	.	.	.	.	.	.	.	.	.	16ee-\	.	.	.	.	.
.	.	.	.	.	.	.	.	.	16dd\JJ)	.	.	.	.	.	.	.	.	.	.	.	.	16dd\JJ	.	.	.	.	.
.	4r	.	4ryy	.	8c\	.	8e- 8G/	.	8cc\L	.	.	.	.	.	.	.	.	.	.	.	.	8cc\L)	.	.	.	.	.
.	.	.	.	.	8c\J	.	8e-J 8G/	.	8ee-\J	.	.	.	.	.	.	.	.	.	.	.	.	8ee-'\J	.	.	.	.	.
=19	=19	=19	=19	=19	=19	=19	=19	=19	=19	=19	=19	=19	=19	=19	=19	=19	=19	=19	=19	=19	=19	=19	=19	=19	=19	=19	=19
*	*	*	*	*	*rep	*	*rep	*	*	*	*	*	*	*	*	*	*	*	*	*	*	*	*	*	*	*	*
2ryy	4C/	.	4C/yy	.	8r	.	8r	.	8cc\L	.	2r	2r	2r	.	2ee-X/]	2cc\]	.	2g] 2G/]	.	2r	.	8cc'\L	.	2r	.	2r	.
.	.	.	.	.	8c\L	.	8e-L 8G/	.	8gg\J	.	.	.	.	.	.	.	.	.	.	.	.	8gg'\J	.	.	.	.	.
!	!	!LO:HP:a:t=cresc	!	!LO:HP:a:t=cresc	!	!	!	!	!	!LO:HP:t=cresc	!	!	!	!	!	!	!	!	!	!	!	!	!	!	!	!	!
.	4r	<	4ryy	<	8c\	.	8e- 8G/	.	4ee-\	<	.	.	.	.	.	.	.	.	.	.	.	4ee-'\	.	.	.	.	.
.	.	.	.	.	8c\J	.	8e-J 8G/	.	.	.	.	.	.	.	.	.	.	.	.	.	.	.	.	.	.	.	.
*	*	*	*	*	*Xrep	*	*Xrep	*	*	*	*	*	*	*	*	*	*	*	*	*	*	*	*	*	*	*	*
=20	=20	=20	=20	=20	=20	=20	=20	=20	=20	=20	=20	=20	=20	=20	=20	=20	=20	=20	=20	=20	=20	=20	=20	=20	=20	=20	=20
*	*	*	*	*	*	*	*	*	*	*	*	*	*2\right	*	*	*	*	*	*	*	*	*	*	*	*	*	*
!	!	!	!	!	!	!	!	!	!	!	!	!	!	!	!	!	!LO:HP:t=cresc	!	!	!	!	!	!	!	!	!	!
2ryy	4E-\	.	4E-\yy	.	8r	.	8r	.	16cc\LL	.	2r	2r	[2E-X\	.	2ee-X/	2cc\	<	[2g [2G/	.	(16cc\LL	.	2r	.	2r	.	(16cc\LL	.
.	.	.	.	.	.	.	.	.	16dd\	.	.	.	.	.	.	.	.	.	.	16dd\	.	.	.	.	.	16dd\	.
.	.	.	.	.	8e-L 8c\	.	8gL 8G/	.	16ee-\	.	.	.	.	.	.	.	.	.	.	16ee-\	.	.	.	.	.	16ee-\	.
.	.	.	.	.	.	.	.	.	16dd\JJ	.	.	.	.	.	.	.	.	.	.	16dd\JJ	.	.	.	.	.	16dd\JJ	.
.	4r	.	4ryy	.	8e- 8c\	.	8g 8G/	.	8cc\L	.	.	.	.	.	.	.	.	.	.	8cc\L)	.	.	.	.	.	8cc\L)	.
.	.	.	.	.	8e-J 8c\	.	8gJ 8G/	.	8ee-\J	.	.	.	.	.	.	.	.	.	.	8ee-\J	.	.	.	.	.	8ee-'\J	.
=21	=21	=21	=21	=21	=21	=21	=21	=21	=21	=21	=21	=21	=21	=21	=21	=21	=21	=21	=21	=21	=21	=21	=21	=21	=21	=21	=21
*	*	*	*	*	*rep	*	*rep	*	*	*	*	*	*	*	*	*	*	*	*	*	*	*	*	*	*	*	*
!	!	!	!	!	!	!	!	!	!	!	!	!	!	!LO:HP:t=cresc	!	!	!	!	!	!	!	!	!	!	!	!	!
2ryy	4E-\	.	4E-\yy	.	8r	.	8r	.	8cc\L	.	2r	2r	2E-X\]	<	2ee-X/	2cc\	.	2g] 2G/]	.	8cc'\L	.	2r	.	2r	.	8cc'\L	.
.	.	.	.	.	8e-L 8c\	.	8gL 8G/	.	8ccc\J	.	.	.	.	.	.	.	.	.	.	8ccc'\J	.	.	.	.	.	8ccc'\J	.
.	4r	.	4ryy	.	8e- 8c\	.	8g 8G/	.	4gg\	.	.	.	.	.	.	.	.	.	.	4gg'\	.	.	.	.	.	4gg'\	.
.	.	.	.	.	8e-J 8c\	.	8gJ 8G/	.	.	.	.	.	.	.	.	.	.	.	.	.	.	.	.	.	.	.	.
*	*	*	*	*	*Xrep	*	*Xrep	*	*	*	*	*	*	*	*	*	*	*	*	*	*	*	*	*	*	*	*
*	*	*	*	*	*	*	*	*	*	*	*	*	*	*	*v	*v	*	*	*	*	*	*	*	*	*	*	*
!!LO:PB:g=original
=22	=22	=22	=22	=22	=22	=22	=22	=22	=22	=22	=22	=22	=22	=22	=22	=22	=22	=22	=22	=22	=22	=22	=22	=22	=22	=22
*	*	*	*	*	*	*	*	*	*	*	*	*	*	*	*	*	*^	*	*	*	*	*	*	*	*	*
!	!	!	!	!	!	!	!	!	!LO:TX:a:t=uno poco All.o.	!	!	!	!	!	!	!	!	!	!	!	!	!	!	!	!	!	!
2ryy	8.r	.	8.ryy	.	8.r	.	8.r	.	8.r	.	8.r	8.r	8.r	.	8.r	.	8.r	8.ryy	.	8.r	.	8.r	.	8.r	.	8.r	.
!	!	!LO:DY:rj	!	!LO:DY:rj	!	!	!	!LO:DY:rj	!	!LO:DY:rj	!	!	!	!LO:DY:rj	!	!	!	!	!	!	!	!	!LO:DY:rj	!	!	!	!LO:DY:rj
.	16E-X\	f	16E-X\yy	fyy	16e-X\	.	16cc#X 16g/	f	16gg\	f	16E-X\	16cc#X 16g/	16E-X\	f	16cc#X 16g/	.	16g/	16g\	.	16cc#X 16g/	.	16gg 16cc#X\	f	16ccc#X\	.	16ggg\	f
.	8.E-\L	.	8.E-\Lyy	.	8.e-\L	.	8.cc#L 8.g/	.	8.gg\L	.	8.E-\L	8.cc#L 8.g/	8.E-\L	.	8.cc#L 8.g/	.	8.g/L	8.g\L	.	8.cc#L 8.g/	.	8.ggL 8.cc#\	.	8.ccc#\L	.	8.ggg\L	.
.	16E-\Jk	.	16E-\Jkyy	.	16e-\Jk	.	16cc#Jk 16g/	.	16gg\Jk	.	16E-\Jk	16cc#Jk 16g/	16E-\Jk	.	16cc#Jk 16g/	.	16g/Jk	16g\Jk	.	16cc#Jk 16g/	.	16ggJk 16cc#\	.	16ccc#\Jk	.	16ggg\Jk	.
=23	=23	=23	=23	=23	=23	=23	=23	=23	=23	=23	=23	=23	=23	=23	=23	=23	=23	=23	=23	=23	=23	=23	=23	=23	=23	=23	=23
2ryy	8.E-X\L	.	8.E-X\Lyy	.	8.e-X\L	.	8.cc#XL 8.g/	.	8.gg\L	.	8.E-X\L	8.cc#XL 8.g/	8.E-\L	.	8.cc#XL 8.g/	.	8.g/L	8.g\L	.	8.cc#XL 8.g/	.	8.ggL 8.cc#X\	.	8.ccc#X\L	.	8.ggg\L	.
.	16E-\Jk	.	16E-\Jkyy	.	16e-\Jk	.	16cc#Jk 16g/	.	16gg\Jk	.	16E-\Jk	16cc#Jk 16g/	16E-\Jk	.	16cc#Jk 16g/	.	16g/Jk	16g\Jk	.	16cc#Jk 16g/	.	16ggJk 16cc#\	.	16ccc#\Jk	.	16ggg\Jk	.
*	*rep	*	*rep	*	*rep	*	*rep	*	*rep	*	*rep	*rep	*rep	*	*rep	*	*rep	*rep	*	*rep	*	*rep	*	*rep	*	*rep	*
.	8.E-\L	.	8.E-\Lyy	.	8.e-\L	.	8.cc#L 8.g/	.	8.gg\L	.	8.E-\L	8.cc#L 8.g/	8.E-\L	.	8.cc#L 8.g/	.	8.g/L	8.g\L	.	8.cc#L 8.g/	.	8.ggL 8.cc#\	.	8.ccc#\L	.	8.ggg\L	.
.	16E-\Jk	.	16E-\Jkyy	.	16e-\Jk	.	16cc#Jk 16g/	.	16gg\Jk	.	16E-\Jk	16cc#Jk 16g/	16E-\Jk	.	16cc#Jk 16g/	.	16g/Jk	16g\Jk	.	16cc#Jk 16g/	.	16ggJk 16cc#\	.	16ccc#\Jk	.	16ggg\Jk	.
*	*Xrep	*	*Xrep	*	*Xrep	*	*Xrep	*	*Xrep	*	*Xrep	*Xrep	*Xrep	*	*Xrep	*	*Xrep	*Xrep	*	*Xrep	*	*Xrep	*	*Xrep	*	*Xrep	*
*	*	*	*	*	*	*	*	*	*	*	*	*	*	*	*	*	*v	*v	*	*	*	*	*	*	*	*	*
=24	=24	=24	=24	=24	=24	=24	=24	=24	=24	=24	=24	=24	=24	=24	=24	=24	=24	=24	=24	=24	=24	=24	=24	=24	=24	=24
*	*	*	*	*	*	*	*	*	*	*	*	*	*	*	*	*	*	*	*	*	*^	*	*	*	*	*
2ryy	16D'\LL	.	16D'\LLyy	.	16d\	.	16ddLL 16f#X/	.	(16ff#X\LL	.	4D\	4dd 4f#X/	16D'\LL	.	4dd 4f#X/	.	4a- 4d/	.	4dd 4f#X/	.	4ff#X/	4dd\	.	4ddd\	.	4fff#X\	.
!	!	!	!	!	!LO:TX:a:t=Col b&colon;	!	!	!	!	!	!	!	!	!	!	!	!	!	!	!	!	!	!	!	!	!	!
.	(16D\	.	(yy16D\yy	.	(yy16d\LLyy	.	16d/	.	16dd\	.	.	.	(16D\	.	.	.	.	.	.	.	.	.	.	.	.	.	.
.	16En\	.	16En\yy	.	16en\yy	.	(<16en/	.	16een\	.	.	.	16En\	.	.	.	.	.	.	.	.	.	.	.	.	.	.
.	16F#X\JJ	.	16F#X\JJyy	.	16f#X\JJyy	.	16f#/JJ	.	16ff#\JJ	.	.	.	16F#X\JJ	.	.	.	.	.	.	.	.	.	.	.	.	.	.
.	16G\LL	.	16G\LLyy	.	16g\LLyy	.	16g/LL	.	16gg\LL	.	4r	4r	16G\LL	.	4r	.	4r	.	4r	.	4r	4ryy	.	4r	.	4r	.
.	16An\	.	16An\yy	.	16an\yy	.	16an/	.	16aan\	.	.	.	16An\	.	.	.	.	.	.	.	.	.	.	.	.	.	.
.	16Bn\	.	16Bn\yy	.	16bn\yy	.	16bn/	.	16bbn\	.	.	.	16Bn\	.	.	.	.	.	.	.	.	.	.	.	.	.	.
.	16c#X\JJ	.	16c#X\JJyy	.	16cc#X\JJyy	.	16cc#X/JJ	.	16ccc#X\JJ	.	.	.	16c#X\JJ	.	.	.	.	.	.	.	.	.	.	.	.	.	.
=25	=25	=25	=25	=25	=25	=25	=25	=25	=25	=25	=25	=25	=25	=25	=25	=25	=25	=25	=25	=25	=25	=25	=25	=25	=25	=25	=25
2ryy	4d\)	.	4d\)yy	.	4dd\)yy	.	4dd\)	.	4ddd\)	.	2r	2r	4d\)	.	2r	.	2r	.	4r	.	4r	4ryy	.	2r	.	4r	.
.	4r	.	4ryy	.	4ryy	.	4r	.	4r	.	.	.	4r	.	.	.	.	.	8r	.	8r	8ryy	.	.	.	8r	p
.	.	.	.	.	.	.	.	.	.	.	.	.	.	.	.	.	.	.	8an 8f#X/	.	8dd/	8dd\	.	.	.	8aan\	.
=26	=26	=26	=26	=26	=26	=26	=26	=26	=26	=26	=26	=26	=26	=26	=26	=26	=26	=26	=26	=26	=26	=26	=26	=26	=26	=26	=26
.	.	.	.	.	.	.	.	.	.	.	.	.	.	.	.	.	.	.	8qcc 8qan/	.	.	.	.	.	.	(8qccc/	.
*	*	*	*	*	*	*	*	*	*	*	*	*	*	*	*	*	*	*	*	*	*	*tremolo	*	*	*	*	*
*	*	*	*	*	*	*	*	*	*	*	*	*	*	*	*	*	*	*	*	*	*	*2\right	*	*	*	*	*
2ryy	2r	.	2ryy	.	2ryy	.	2r	.	2r	.	2r	2r	2r	.	2r	.	2r	.	8b-L 8g/	.	8dd/L	8dd\L	.	2r	.	8bb-\L)	.
.	.	.	.	.	.	.	.	.	.	.	.	.	.	.	.	.	.	.	8a 8f#X/	.	8dd/	8dd\	.	.	.	8aan'\	.
.	.	.	.	.	.	.	.	.	.	.	.	.	.	.	.	.	.	.	8b- 8g/	.	8dd/	8dd\	.	.	.	8bb-'\	.
.	.	.	.	.	.	.	.	.	.	.	.	.	.	.	.	.	.	.	8ddJ 8b-/	.	8gg/J	8dd\J	.	.	.	8ddd'\J	.
=27	=27	=27	=27	=27	=27	=27	=27	=27	=27	=27	=27	=27	=27	=27	=27	=27	=27	=27	=27	=27	=27	=27	=27	=27	=27	=27	=27
*	*	*	*	*	*	*	*	*	*	*	*	*	*	*	*	*	*	*	*^	*	*	*	*	*	*	*	*
2ryy	16r	.	16ryy	.	16ryy	.	16r	.	16r	.	2r	2r	16r	.	2r	.	2r	.	4dd/	4dd\	.	4ff#X/	4dd\	.	2r	.	4aan\	.
.	(16D\LL	.	(yy16D\LLyy	.	(yy16d\LL	.	(<16d/LL	.	(16dd\LL	.	.	.	(16D\LL	.	.	.	.	.	.	.	.	.	.	.	.	.	.	.
.	16En\	.	16En\yy	.	16en\yy	.	16en/	.	16een\	.	.	.	16En\	.	.	.	.	.	.	.	.	.	.	.	.	.	.	.
.	16F#X\JJ	.	16F#X\JJyy	.	16f#X\JJyy	.	16f#X/JJ	.	16ff#X\JJ	.	.	.	16F#X\JJ	.	.	.	.	.	.	.	.	.	.	.	.	.	.	.
.	16G\LL	.	16G\LLyy	.	16g\LLyy	.	16g/LL	.	16gg\LL	.	.	.	16G\LL	.	.	.	.	.	4r	4ryy	.	4r	4ryy	.	.	.	4r	.
.	16An\	.	16An\yy	.	16an\yy	.	16an/	.	16aan\	.	.	.	16An\	.	.	.	.	.	.	.	.	.	.	.	.	.	.	.
.	16Bn\	.	16Bn\yy	.	16bn\yy	.	16bn/	.	16bbn\	.	.	.	16Bn\	.	.	.	.	.	.	.	.	.	.	.	.	.	.	.
.	16c#X\JJ	.	16c#X\JJyy	.	16cc#X\JJyy	.	16cc#X/JJ	.	16ccc#X\JJ	.	.	.	16c#X\JJ	.	.	.	.	.	.	.	.	.	.	.	.	.	.	.
*	*	*	*	*	*	*	*	*	*	*	*	*	*	*	*	*	*	*	*v	*v	*	*	*	*	*	*	*	*
=28	=28	=28	=28	=28	=28	=28	=28	=28	=28	=28	=28	=28	=28	=28	=28	=28	=28	=28	=28	=28	=28	=28	=28	=28	=28	=28	=28
2ryy	4d\)	.	4d\)yy	.	4dd\)yy	.	4dd\)	.	4ddd\)	.	2r	2r	4d\)	.	2r	.	2r	.	4r	.	4r	4ryy	.	2r	.	4r	.
.	4r	.	4ryy	.	4ryy	.	4r	.	4r	.	.	.	4r	.	.	.	.	.	8r	.	8r	8ryy	.	.	.	8r	.
.	.	.	.	.	.	.	.	.	.	.	.	.	.	.	.	.	.	.	8an 8f#X/	.	8dd/	8dd\	.	.	.	8aan\	.
=29	=29	=29	=29	=29	=29	=29	=29	=29	=29	=29	=29	=29	=29	=29	=29	=29	=29	=29	=29	=29	=29	=29	=29	=29	=29	=29	=29
.	.	.	.	.	.	.	.	.	.	.	.	.	.	.	.	.	.	.	8qcc 8qan/	.	.	.	.	.	.	(8qccc/	.
2ryy	2r	.	2r	.	2r	.	2r	.	2r	.	2r	2r	2r	.	2r	.	2r	.	8b-L 8g/	.	8dd'/L	8dd\L	.	2r	.	8bb-\L)	.
.	.	.	.	.	.	.	.	.	.	.	.	.	.	.	.	.	.	.	8a 8f#X/	.	8dd'/	8dd\	.	.	.	8aan'\	.
.	.	.	.	.	.	.	.	.	.	.	.	.	.	.	.	.	.	.	8b- 8g/	.	8dd'/	8dd\	.	.	.	8bb-'\	.
.	.	.	.	.	.	.	.	.	.	.	.	.	.	.	.	.	.	.	8ddJ 8b-/	.	8gg'/J	8dd\J	.	.	.	8ddd'\J	.
=30	=30	=30	=30	=30	=30	=30	=30	=30	=30	=30	=30	=30	=30	=30	=30	=30	=30	=30	=30	=30	=30	=30	=30	=30	=30	=30	=30
*	*	*	*	*	*	*	*	*	*	*	*	*	*	*	*	*	*	*	*^	*	*	*	*	*	*	*	*
2ryy	2r	.	4r	.	4r	.	4r	.	4r	.	2r	2r	2r	.	2r	.	2r	.	4dd/	4dd\	.	4ff#X/	4dd\	.	4r	.	4aan\	.
.	.	.	8r	.	8r	.	8r	.	8r	.	.	.	.	.	.	.	.	.	4r	4ryy	.	4r	4ryy	.	8r	.	4r	.
.	.	.	(16F#X\LL	.	16f#X\LL	.	(16f#X/LL	.	(16ff#X\LL	.	.	.	.	.	.	.	.	.	.	.	.	.	.	.	(16ff#X\LL	.	.	.
.	.	.	16An\JJ)	.	16an\JJ	.	16an/JJ)	.	16aan\JJ)	.	.	.	.	.	.	.	.	.	.	.	.	.	.	.	16aan\JJ)	.	.	.
*	*	*	*	*	*	*	*	*	*	*	*	*	*	*	*	*	*	*	*v	*v	*	*	*	*	*	*	*	*
*	*	*	*	*	*	*	*	*	*	*	*	*	*	*	*	*	*	*	*	*	*v	*v	*	*	*	*	*
!!LO:PB:g=original
=31	=31	=31	=31	=31	=31	=31	=31	=31	=31	=31	=31	=31	=31	=31	=31	=31	=31	=31	=31	=31	=31	=31	=31	=31	=31	=31
2r	2r	.	4D\	.	4d\	.	4d/	.	4dd\	.	2r	2r	2r	.	2r	.	2r	.	2r	.	2r	.	4dd\	.	2r	.
.	.	.	8r	.	8r	.	8r	.	8r	.	.	.	.	.	.	.	.	.	.	.	.	.	8r	.	.	.
!	!	!	!LO:TUP:a:problem:klamra łukowa	!	!LO:TUP:b:problem:klamra łukowa	!	!LO:TUP:b:problem:klamra łukowa	!	!LO:TUP:a:problem:klamra łukowa	!	!	!	!	!	!	!	!	!	!	!	!	!	!LO:TUP:a:problem:klamra łukowa	!	!	!
.	.	.	24F#X\LL	.	24f#X\LL	.	24f#X/LL	.	24ff#X\LL	.	.	.	.	.	.	.	.	.	.	.	.	.	24ff#X\LL	.	.	.
.	.	.	24An\	.	24an\	.	24an/	.	24aan\	.	.	.	.	.	.	.	.	.	.	.	.	.	24aan\	.	.	.
.	.	.	24c\JJ	.	24cc\JJ	.	24cc/JJ	.	24ccc\JJ	.	.	.	.	.	.	.	.	.	.	.	.	.	24ccc\JJ	.	.	.
=32	=32	=32	=32	=32	=32	=32	=32	=32	=32	=32	=32	=32	=32	=32	=32	=32	=32	=32	=32	=32	=32	=32	=32	=32	=32	=32
*	*	*	*	*	*	*	*	*	*	*	*	*	*^	*	*^	*	*	*	*	*	*	*	*	*	*	*
*tremolo	*	*	*	*	*	*	*	*	*2\right	*	*2\right	*	*	*	*	*	*	*	*	*	*	*	*	*	*2\right	*	*	*
!LO:SIC:s=16D/LL	!	!LO:DY:rj	!	!LO:DY:rj	!	!	!	!	!	!LO:DY:rj	!	!	!	!LO:SIC:v:s=2An	!LO:DY:rj	!	!	!	!	!	!	!	!	!	!	!LO:DY:rj	!	!
16Re/LL	2D;\	f	2An 2D;\	f	2an 2d;\	.	2cc 2d;/	.	2ff#X 2an;\	f	2D;\	2a 2f#X;/	2c;/	2A-\	f	2dd;/	2dd\	.	2a 2d;/	.	2dd 2an;/	.	2ff#X 2ccn;\	.	2ff#X;\	f	2r;	.
!LO:SIC:s=16D/	!	!	!	!	!	!	!	!	!	!	!	!	!	!	!	!	!	!	!	!	!	!	!	!	!	!	!	!
16Re/	.	.	.	.	.	.	.	.	.	.	.	.	.	.	.	.	.	.	.	.	.	.	.	.	.	.	.	.
!LO:SIC:s=16D/	!	!	!	!	!	!	!	!	!	!	!	!	!	!	!	!	!	!	!	!	!	!	!	!	!	!	!	!
16Re/	.	.	.	.	.	.	.	.	.	.	.	.	.	.	.	.	.	.	.	.	.	.	.	.	.	.	.	.
!LO:SIC:s=16D/JJ	!	!	!	!	!	!	!	!	!	!	!	!	!	!	!	!	!	!	!	!	!	!	!	!	!	!	!	!
16Re/JJ	.	.	.	.	.	.	.	.	.	.	.	.	.	.	.	.	.	.	.	.	.	.	.	.	.	.	.	.
!LO:SIC:s=8D/	!	!	!	!	!	!	!	!	!	!	!	!	!	!	!	!	!	!	!	!	!	!	!	!	!	!	!	!
!LO:N:vis=4	!	!	!	!	!	!	!	!	!	!	!	!	!	!	!	!	!	!	!	!	!	!	!	!	!	!	!	!
8Re/	.	.	.	.	.	.	.	.	.	.	.	.	.	.	.	.	.	.	.	.	.	.	.	.	.	.	.	.
8r;	.	.	.	.	.	.	.	.	.	.	.	.	.	.	.	.	.	.	.	.	.	.	.	.	.	.	.	.
*	*	*	*	*	*	*	*	*	*	*	*	*	*v	*v	*	*	*	*	*	*	*	*	*	*	*	*	*	*
*	*	*	*	*	*	*	*	*	*	*	*	*	*	*	*v	*v	*	*	*	*	*	*	*	*	*	*	*
==	==	==	==	==	==	==	==	==	==	==	==	==	==	==	==	==	==	==	==	==	==	==	==	==	==	==
*-	*-	*-	*-	*-	*-	*-	*-	*-	*-	*-	*-	*-	*-	*-	*-	*-	*-	*-	*-	*-	*-	*-	*-	*-	*-	*-
!!!system-decoration: ({g1}s3,s4{g2}s7,s8,s9)({g3}s12{g4})s15
!!!RDF**kern: > = above
!!!RDF**kern: < = below
!!!ENC: Marta Lawrence
!!!END: 2021-05-16
!!!ENC: Marcin Jachim
!!!END: 2021-04-20
